X: 22442
T: Lads Of Dunse, The
R: jig
M: 6/8
K: Dmajor
|:d/B/|AFD D3|D3 B2B|Bcd AFA|E3 GFE|
AFD D3|D3 B2B|Bcd AFA|D3 D2:|
|:g|f2f def|fga B2B|Bcd AFA|E3 EBe|
[1 f2f def|fga B2B|Bcd AFA|D3 D2:|
[2 fga efg|def B2B|Bcd F3|EFE D2||

